icons/nextjs/nextjs-original-wordmark.svg

<?xml version="1.0" encoding="UTF-8" standalone="no"?>
<svg
   width="128"
   height="128"
   viewBox="0 0 128 128"
   fill="none"
   version="1.1"
   id="svg8"
   sodipodi:docname="nextjs-original-wordmark.svg"
   inkscape:version="1.3 (0e150ed6c4, 2023-07-21)"
   xmlns:inkscape="http://www.inkscape.org/namespaces/inkscape"
   xmlns:sodipodi="http://sodipodi.sourceforge.net/DTD/sodipodi-0.dtd"
   xmlns="http://www.w3.org/2000/svg"
   xmlns:svg="http://www.w3.org/2000/svg">
  <defs
     id="defs8" />
  <sodipodi:namedview
     id="namedview8"
     pagecolor="#ffffff"
     bordercolor="#000000"
     borderopacity="0.25"
     inkscape:showpageshadow="2"
     inkscape:pageopacity="0.0"
     inkscape:pagecheckerboard="0"
     inkscape:deskcolor="#d1d1d1"
     inkscape:zoom="1.8090448"
     inkscape:cx="30.126397"
     inkscape:cy="76.006964"
     inkscape:window-width="1366"
     inkscape:window-height="697"
     inkscape:window-x="-8"
     inkscape:window-y="-8"
     inkscape:window-maximized="1"
     inkscape:current-layer="svg8" />
  <path
     id="path1"
     style="stroke-width:0.324873;fill:#000000;fill-opacity:1"
     d="M 0 51.097656 L 0 76.861328 L 4.421875 76.861328 L 4.421875 56.603516 L 20.728516 76.873047 L 26.285156 76.873047 L 48.423828 76.873047 L 48.423828 72.757812 L 30.550781 72.757812 L 30.550781 65.958984 L 44.923828 65.958984 L 44.923828 61.84375 L 30.550781 61.84375 L 30.550781 55.222656 L 48.423828 55.222656 L 48.423828 51.107422 L 26.126953 51.107422 L 26.126953 55.222656 L 26.128906 55.222656 L 26.128906 76.679688 L 5.5273438 51.097656 L 0 51.097656 z M 85.089844 51.107422 L 85.089844 55.222656 L 94.119141 55.222656 L 94.119141 76.873047 L 98.541016 76.873047 L 98.541016 55.222656 L 107.38672 55.222656 L 107.38672 51.107422 L 85.089844 51.107422 z M 53.767578 51.119141 L 74.498047 76.882812 L 80.300781 76.882812 L 69.935547 64.009766 L 80.285156 51.138672 L 74.498047 51.146484 L 67.039062 60.412109 L 59.556641 51.119141 L 53.767578 51.119141 z M 123.92383 65.716797 C 123.16298 65.716797 122.48024 65.845615 121.875 66.111328 C 121.27269 66.374118 120.79651 66.743396 120.44922 67.21875 C 120.09836 67.694137 119.92383 68.249014 119.92383 68.880859 C 119.92383 69.65149 120.18203 70.266907 120.70312 70.730469 C 121.22161 71.194029 121.93213 71.538279 122.82812 71.765625 L 124.06836 72.080078 C 124.45788 72.177507 124.80039 72.288105 125.09375 72.412109 C 125.38451 72.536113 125.61263 72.690013 125.77734 72.873047 C 125.93909 73.056113 126.02239 73.289817 126.02539 73.570312 C 126.02247 73.877382 125.92996 74.145669 125.74414 74.373047 C 125.56123 74.60335 125.30599 74.781243 124.98242 74.908203 C 124.65592 75.035168 124.27812 75.099609 123.84961 75.099609 C 123.43897 75.099609 123.069 75.037064 122.73633 74.916016 C 122.40659 74.792012 122.13631 74.609336 121.92969 74.361328 C 121.726 74.110364 121.60512 73.801699 121.57812 73.429688 L 119.63672 73.429688 C 119.66368 74.141256 119.85259 74.746172 120.20312 75.242188 C 120.55366 75.738236 121.039 76.11617 121.66211 76.373047 C 122.28229 76.632881 123.02024 76.761719 123.86523 76.761719 C 124.74011 76.761719 125.48332 76.627074 126.09766 76.361328 C 126.71492 76.092625 127.18522 75.719495 127.51172 75.244141 C 127.83854 74.765831 128 74.214826 128 73.585938 C 128 73.11942 127.90915 72.714578 127.73242 72.369141 C 127.55569 72.023671 127.31645 71.727506 127.01367 71.482422 C 126.71121 71.23737 126.36675 71.034447 125.98633 70.875 C 125.6059 70.712628 125.20751 70.584704 124.79688 70.490234 L 123.77539 70.240234 C 123.55382 70.187084 123.33093 70.121692 123.10938 70.044922 C 122.89042 69.968155 122.68942 69.872947 122.50977 69.757812 C 122.32687 69.645601 122.18697 69.507125 122.08203 69.341797 C 121.97707 69.179393 121.92383 68.984155 121.92383 68.759766 C 121.93 68.491063 122.00649 68.25261 122.16211 68.042969 C 122.31804 67.833329 122.54615 67.668926 122.83984 67.544922 C 123.13352 67.423876 123.48812 67.361328 123.89844 67.361328 C 124.48288 67.361328 124.9594 67.487264 125.32812 67.744141 C 125.6936 67.998061 125.90337 68.356805 125.95117 68.814453 L 127.84961 68.814453 C 127.84052 68.209183 127.66665 67.673548 127.33398 67.207031 C 127.00164 66.740546 126.5431 66.374118 125.95898 66.111328 C 125.37454 65.845615 124.69703 65.716797 123.92383 65.716797 z M 115.92773 65.861328 L 115.92773 73.410156 C 115.9248 73.788081 115.86565 74.10839 115.75195 74.365234 C 115.63499 74.625067 115.46669 74.819302 115.24805 74.949219 C 115.02941 75.082087 114.76011 75.146484 114.44531 75.146484 C 114.15487 75.146484 113.89636 75.090727 113.67188 74.978516 C 113.44999 74.866305 113.27612 74.707688 113.15039 74.498047 C 113.02469 74.288406 112.95808 74.037411 112.95508 73.748047 L 110.99219 73.748047 C 110.99219 74.409423 111.13959 74.961397 111.43945 75.404297 C 111.73606 75.847195 112.14099 76.183813 112.65039 76.408203 C 113.15979 76.632593 113.73077 76.748047 114.36914 76.748047 C 115.0673 76.748047 115.68268 76.611417 116.20703 76.345703 C 116.7343 76.077 117.1448 75.696238 117.44141 75.197266 C 117.73477 74.698261 117.88372 74.10402 117.88672 73.410156 L 117.88672 65.861328 L 115.92773 65.861328 z M 62.595703 65.917969 L 53.751953 76.902344 L 59.556641 76.902344 L 65.494141 69.521484 L 62.595703 65.917969 z M 108.38086 74.417969 C 108.05696 74.417969 107.78144 74.529516 107.55078 74.753906 C 107.32012 74.978296 107.20598 75.247564 107.20898 75.560547 C 107.20606 75.882366 107.32012 76.154516 107.55078 76.378906 C 107.78144 76.603296 108.05696 76.714844 108.38086 76.714844 C 108.5904 76.714844 108.78128 76.661937 108.95508 76.558594 C 109.13214 76.458209 109.27203 76.319764 109.38281 76.142578 C 109.49065 75.968381 109.54583 75.773111 109.54883 75.560547 C 109.54558 75.247564 109.42922 74.978296 109.19531 74.753906 C 108.96465 74.529516 108.69241 74.417969 108.38086 74.417969 z " />
</svg>

<svg xmlns="http://www.w3.org/2000/svg" viewBox="0 0 128 128"><path d="M0 51.098V76.86h4.422V56.603l16.306 20.27h27.696v-4.115H30.55v-6.799h14.373v-4.115H30.55v-6.621h17.873v-4.116H26.127v4.116h.002V76.68L5.527 51.098H0zm85.09.01v4.115h9.03v21.65h4.421v-21.65h8.846v-4.116H85.09zm-31.322.011 20.73 25.764h5.803L69.936 64.01l10.35-12.871-5.788.007-7.459 9.266-7.482-9.293h-5.79zm70.156 14.598c-.761 0-1.444.129-2.049.394-.602.263-1.079.632-1.426 1.108-.35.475-.525 1.03-.525 1.662 0 .77.258 1.386.78 1.85.518.463 1.228.807 2.124 1.035l1.24.314c.39.098.732.208 1.026.332.29.124.519.278.683.461.162.183.245.417.248.697a1.248 1.248 0 0 1-.28.803c-.184.23-.439.408-.763.535a3.112 3.112 0 0 1-1.132.192c-.411 0-.781-.063-1.114-.184a1.89 1.89 0 0 1-.806-.555 1.625 1.625 0 0 1-.352-.931h-1.941c.027.711.216 1.316.566 1.812s.836.874 1.46 1.131c.62.26 1.357.389 2.202.389.875 0 1.618-.135 2.233-.4.617-.27 1.087-.643 1.414-1.118.327-.478.488-1.03.488-1.658 0-.467-.09-.871-.268-1.217a2.725 2.725 0 0 0-.718-.887 4.21 4.21 0 0 0-1.028-.607 7.063 7.063 0 0 0-1.19-.385l-1.02-.25a7.087 7.087 0 0 1-.667-.195 2.865 2.865 0 0 1-.6-.287 1.302 1.302 0 0 1-.427-.416 1.052 1.052 0 0 1-.158-.582c.006-.269.083-.507.238-.717.156-.21.384-.374.678-.498a2.778 2.778 0 0 1 1.058-.184c.585 0 1.061.126 1.43.383.366.254.575.613.623 1.07h1.899a2.775 2.775 0 0 0-.516-1.607c-.332-.467-.79-.833-1.375-1.096-.584-.265-1.262-.394-2.035-.394zm-7.996.144v7.55c-.003.377-.062.697-.176.954-.117.26-.285.454-.504.584-.219.133-.488.198-.803.198a1.71 1.71 0 0 1-.773-.169 1.25 1.25 0 0 1-.522-.48 1.465 1.465 0 0 1-.195-.75h-1.963c0 .661.148 1.213.448 1.656.296.443.701.78 1.21 1.004.51.225 1.08.34 1.72.34.697 0 1.313-.137 1.837-.402a2.97 2.97 0 0 0 1.234-1.149c.294-.499.443-1.093.446-1.787v-7.549h-1.96zm-53.332.057-8.844 10.984h5.805l5.937-7.38-2.898-3.604zm45.785 8.5c-.324 0-.6.112-.83.336a1.07 1.07 0 0 0-.342.806c-.003.322.111.595.342.819.23.224.506.336.83.336a1.2 1.2 0 0 0 1.002-.572 1.094 1.094 0 0 0-.188-1.389 1.13 1.13 0 0 0-.814-.336z"/></svg>
